X:1
T:Berceuse de Jocelyn
T:Berceuse de Jocelyn
T:Godard
C:Godard
%%score 1 2 3
L:1/8
M:3/4
K:C
V:1 treble nm="Flute" snm="Fl."
V:2 treble transpose=-2 nm="B♭ Clarinet" snm="B♭ Cl."
V:3 treble transpose=-2 nm="B♭ Clarinet" snm="B♭ Cl."
V:1
 z6 | z6 | z6 | z6 | z6 | z6 | z6 | z6 | z6 | z6 | z6 | z6 | z6 | z6 | z4!pp!"^Quasi recit." B2 | %15
 B3!<(! B BB!<)! | e4 f2 |!>(! e3 d cB!>)! | A6 | z4 A2 | c3 c BA | c4 c2 | d3 d c_B | d3 d dd | %24
 f4 c2 |!<(! c4 cc!<)! |!<(! _B4 AG!<)! | A4 AA |!>(! _B4 AG!>)! | %29
"^rall. poco a poco"!<(! FG Ad ef!<)! |!>(! !>!a6!>)! | !fermata!g6 | %32
[K:F][M:4/4]"^Andatnte cantabile"!pp! A2 cA Bcec | f8- | fc=Bc edc_B | A4 G4 |!p! z AcA Bcec | %37
 g4 f3 f |!<(! a4 g2 fd!<)! |!>(! cA e>d c4!>)! |!pp! F8 | z2 e2 z2 g2- | g3 f ef c>A | c8 | %44
"^dolce"!<(! A2 f4 f2!<)! | e4 A2 c2 |!>(! d4 !fermata!g3 f!>)! |!pp! f8 | !fermata!f'8 |] %49
V:2
[K:D]!p!"^Andantino" B6 | G2 B2 G2 | B6 | G2 A2 F2 | G2 E2 F2 | G2 E2 F2 | A2 F2 G2 | %7
"_dim." B2 G2 A2 | c2 d2 B2 | c2 d2 B2 | c2 dB cA | BG AF GE | F2 D2 E2 |"^rall." F2 D2 E2 | %14
!pp! F4 z2 | z6 | z6 | z6 | B6 | G2 B2 G2 | B6- | B2 z4 | =C6 | =C6 | D6 |!<(! F6!<)! | %26
!<(! E6!<)! | E6 |!>(! E6!>)! |"^rall. poco a poco"!<(! E4 E2!<)! |!>(! !>!F6!>)! | !fermata!F6 | %32
[K:G][M:4/4]"^Andante cantabile"!pp! z DB,D z DAF | z DBF z DcG | z GBG z EAG | z _ECE z A,CD | %36
!p! z DBG z DAF | z DBA z ^DBD |!<(! z GeB z AEA!<)! | z!>(! DB,D z A,FD!>)! | %40
!pp! z B,DB, z B,G,B, | z DA,F z FCD | z A!>!DG z B!>!B,G | z FDF z FDF |"^dolce"!<(! D4 B4!<)! | %45
 B4 F4 |!>(! B2 c2 !fermata!c4!>)! |!pp! B8 | !fermata!g8 |] %49
V:3
[K:D]!p!"^Andatino" f6 | e2 f2 e2 | f6 | e2 c2 d2 | B3 c d2 | B3 c d2 | c3 d e2 |"_dim." d3 e f2 | %8
 ea fa ga | ea fa ga | ea fg ef | de cd Bc | ^A3 B GB |"^rall" ^A2 Bd cB |!pp! ^A4 z2 | z6 | z6 | %17
 z6 | f6 | e2 f2 e2 | f6- | f2 z4 | G6 | G6 | B6 |!<(! A6!<)! |!<(! A6!<)! | G6 |!>(! A6!>)! | %29
"^rall. poco a poco"!<(! B4 B2!<)! |!>(! !>!=c6!>)! | !fermata!d6 | %32
[K:G][M:4/4]"^Andante cantabile"!pp! G,4 A,4 | B,4 C4 | B,4 A,4 | C4 D4 |!p! G,4 A,4 | B,4 B,4 | %38
!<(! C4 ^C4!<)! |!>(! D4 D4!>)! |!pp! G,4 B,4 | A,4 D4 | B,4 G,4 | A,4 D4 | %44
"^dolce"!<(! G,4 E4!<)! | B,8 |!>(! E2 A2 !fermata!D4!>)! |!pp! G,DEG Bdeg | !fermata!d'8 |] %49

